Simply-Red-Circles/scalable/apps/preferences-system-privacy.svg

<svg xmlns="http://www.w3.org/2000/svg" width="48" height="48" viewBox="0 0 12.7 12.7"><path fill="#a02c2c" d="M6.344.073a6.29 6.29 0 0 0-6.29 6.29 6.29 6.29 0 0 0 6.29 6.288 6.29 6.29 0 0 0 6.29-6.289 6.29 6.29 0 0 0-6.29-6.29zm-.018.936a5.407 5.407 0 0 1 5.407 5.407 5.407 5.407 0 0 1-5.407 5.407A5.407 5.407 0 0 1 .92 6.416 5.407 5.407 0 0 1 6.326 1.01zm.024.765A4.582 4.582 0 0 0 1.773 6.35a4.582 4.582 0 0 0 4.577 4.576 4.582 4.582 0 0 0 4.576-4.576A4.582 4.582 0 0 0 6.35 1.774zm0 1.982a1.376 1.376 0 0 1 .836 2.463l.408 2.877H5.107l.407-2.877a1.37 1.37 0 0 1-.537-1.089c0-.757.616-1.374 1.373-1.374z"/></svg>

<?xml version="1.0" encoding="UTF-8" standalone="no"?>
<svg
   xmlns:dc="http://purl.org/dc/elements/1.1/"
   xmlns:cc="http://creativecommons.org/ns#"
   xmlns:rdf="http://www.w3.org/1999/02/22-rdf-syntax-ns#"
   xmlns:svg="http://www.w3.org/2000/svg"
   xmlns="http://www.w3.org/2000/svg"
   xmlns:sodipodi="http://sodipodi.sourceforge.net/DTD/sodipodi-0.dtd"
   xmlns:inkscape="http://www.inkscape.org/namespaces/inkscape"
   width="48"
   height="48"
   viewBox="0 0 12.7 12.7"
   version="1.1"
   id="svg4"
   sodipodi:docname="preferences-system-privacy.svg"
   inkscape:version="0.92.4 (5da689c313, 2019-01-14)">
  <metadata
     id="metadata10">
    <rdf:RDF>
      <cc:Work
         rdf:about="">
        <dc:format>image/svg+xml</dc:format>
        <dc:type
           rdf:resource="http://purl.org/dc/dcmitype/StillImage" />
        <dc:title></dc:title>
      </cc:Work>
    </rdf:RDF>
  </metadata>
  <defs
     id="defs8" />
  <sodipodi:namedview
     pagecolor="#ffffff"
     bordercolor="#666666"
     borderopacity="1"
     objecttolerance="10"
     gridtolerance="10"
     guidetolerance="10"
     inkscape:pageopacity="0"
     inkscape:pageshadow="2"
     inkscape:window-width="1087"
     inkscape:window-height="480"
     id="namedview6"
     showgrid="false"
     inkscape:zoom="4.9166667"
     inkscape:cx="2.1355932"
     inkscape:cy="24"
     inkscape:window-x="0"
     inkscape:window-y="25"
     inkscape:window-maximized="0"
     inkscape:current-layer="svg4" />
  <path
     d="m 6.344,0.073 a 6.29,6.29 0 0 0 -6.29,6.29 6.29,6.29 0 0 0 6.29,6.288 6.29,6.29 0 0 0 6.29,-6.289 6.29,6.29 0 0 0 -6.29,-6.29 z M 6.326,1.009 A 5.407,5.407 0 0 1 11.733,6.416 5.407,5.407 0 0 1 6.326,11.823 5.407,5.407 0 0 1 0.92,6.416 5.407,5.407 0 0 1 6.326,1.01 Z M 6.35,1.774 A 4.582,4.582 0 0 0 1.773,6.35 4.582,4.582 0 0 0 6.35,10.926 4.582,4.582 0 0 0 10.926,6.35 4.582,4.582 0 0 0 6.35,1.774 Z m 0,1.982 A 1.376,1.376 0 0 1 7.186,6.219 L 7.594,9.096 H 5.107 L 5.514,6.219 A 1.37,1.37 0 0 1 4.977,5.13 c 0,-0.757 0.616,-1.374 1.373,-1.374 z"
     id="path2"
     inkscape:connector-curvature="0"
     style="fill:#a02c2c" />
</svg>
